X: 33600
T: Rakes Of Sollohod, The
R: slip jig
M: 9/8
K: Gmajor
|:d2c ~A2G F2D|~D3 FGA ABc|d2c ~A2G F2D|1 G2B A2F GAB:|2 G2B A2F G2g||
f2d c2e d2A|FGA d2c AFD|FGA d2B cBA|G2F G2A Beg|
f2d A2g f2d|FGA GAB AB^c|def g2e d2B|A2A A2B c2e||

